assets/icons/functional/games/baseball.svg

<svg width="32" height="32" viewBox="0 0 32 32" fill="none" xmlns="http://www.w3.org/2000/svg"><g id="Icon-Baseball"><g clip-path="url(#clip0_11_3320)"><g id="size=md (32px)"><g id="Baseball"><path id="Vector" d="M16 28C22.6274 28 28 22.6274 28 16C28 9.37258 22.6274 4 16 4C9.37258 4 4 9.37258 4 16C4 22.6274 9.37258 28 16 28Z" stroke="#101828" stroke-width="2" stroke-linecap="round" stroke-linejoin="round"/><path id="Vector_2" d="M21.1504 14.125C21.2539 13.467 21.4128 12.8188 21.6254 12.1875" stroke="#101828" stroke-width="2" stroke-linecap="round" stroke-linejoin="round"/><path id="Vector_3" d="M21.6254 19.8125C21.4128 19.1812 21.2539 18.533 21.1504 17.875" stroke="#101828" stroke-width="2" stroke-linecap="round" stroke-linejoin="round"/><path id="Vector_4" d="M10.85 14.125C10.7465 13.467 10.5876 12.8188 10.375 12.1875" stroke="#101828" stroke-width="2" stroke-linecap="round" stroke-linejoin="round"/><path id="Vector_5" d="M10.375 19.8125C10.5876 19.1812 10.7465 18.533 10.85 17.875" stroke="#101828" stroke-width="2" stroke-linecap="round" stroke-linejoin="round"/><path id="Vector_6" d="M23.3496 8.86252C23.7022 8.39112 24.0864 7.94425 24.4996 7.52502" stroke="#101828" stroke-width="2" stroke-linecap="round" stroke-linejoin="round"/><path id="Vector_7" d="M24.4996 24.475C24.0894 24.053 23.7053 23.6063 23.3496 23.1375" stroke="#101828" stroke-width="2" stroke-linecap="round" stroke-linejoin="round"/><path id="Vector_8" d="M7.5 24.475C7.91021 24.053 8.29426 23.6063 8.65 23.1375" stroke="#101828" stroke-width="2" stroke-linecap="round" stroke-linejoin="round"/><path id="Vector_9" d="M8.65 8.86252C8.29745 8.39112 7.91323 7.94425 7.5 7.52502" stroke="#101828" stroke-width="2" stroke-linecap="round" stroke-linejoin="round"/></g></g></g></g><defs><clipPath id="clip0_11_3320"><rect width="32" height="32" rx="5" fill="white"/></clipPath></defs></svg>

<svg xmlns="http://www.w3.org/2000/svg" width="32" height="32" fill="none"><path stroke="#101828" stroke-linecap="round" stroke-linejoin="round" stroke-width="2" d="M16 28c6.627 0 12-5.373 12-12S22.627 4 16 4 4 9.373 4 16s5.373 12 12 12Z"/><path stroke="#101828" stroke-linecap="round" stroke-linejoin="round" stroke-width="2" d="M21.15 14.125c.104-.658.262-1.306.475-1.938m0 7.626a11.831 11.831 0 0 1-.475-1.938m-10.3-3.75a11.831 11.831 0 0 0-.475-1.938m0 7.626c.213-.632.371-1.28.475-1.938m12.5-9.012c.353-.472.737-.919 1.15-1.338m0 16.95a14.45 14.45 0 0 1-1.15-1.338M7.5 24.475c.41-.422.794-.869 1.15-1.338m0-14.274A12.975 12.975 0 0 0 7.5 7.525"/></svg>
